build/img/twitter.svg

<svg width="24" height="24" viewBox="0 0 24 24" fill="none" xmlns="http://www.w3.org/2000/svg">
<g id="ic/24/social/twitter">
<path id="Shape" fill-rule="evenodd" clip-rule="evenodd" d="M20.5302 6.09489C20.6525 6.06364 20.8052 6.09489 20.8969 6.18864C20.9885 6.28239 21.0191 6.43864 20.9886 6.56364C20.7136 7.46977 20.1637 8.12602 19.4915 8.46977V8.5634C19.4915 14.5942 15.092 19.5 9.71484 19.5C6.69018 19.5 4.24606 18.9688 3.14617 18.0627C3.02398 17.9377 2.96285 17.7814 3.02398 17.5939C3.08505 17.4377 3.23782 17.3127 3.42114 17.3127C5.22372 17.2814 6.38467 16.844 7.27069 16.3128C5.55975 16.094 4.49041 15.2504 3.94052 13.6568C3.87939 13.5005 3.94052 13.3443 4.06271 13.2505C4.1849 13.1568 4.36822 13.1568 4.49041 13.2193C4.94869 13.5318 5.40698 13.5943 5.9569 13.5943C4.79595 12.8757 3.72662 11.6882 3.29891 10.2195C3.26834 10.0633 3.32946 9.8759 3.45165 9.8134C3.60443 9.71965 3.7572 9.7509 3.87939 9.84465C4.21548 10.1258 4.58212 10.3133 5.13201 10.407C3.94052 9.15715 3.20727 7.31352 4.24603 5.28252L4.42935 4.90752L4.7348 5.22002C6.62905 7.25102 8.37051 8.18852 11.5479 8.8134V8.6884C11.5479 6.40739 13.2894 4.53252 15.4586 4.50127C16.314 4.50127 17.5055 5.12627 17.9944 5.40752C18.0061 5.40752 18.0177 5.41203 18.0277 5.41594C18.0438 5.42229 18.0555 5.4268 18.0555 5.40752C18.6666 5.22002 19.3998 4.90752 20.2552 4.53252C20.3775 4.47002 20.5302 4.50127 20.6219 4.59502C20.7136 4.68877 20.7441 4.81377 20.683 4.97002C20.5302 5.40752 20.2858 5.87627 19.9192 6.31364L20.5302 6.09489ZM18.7354 8.23784L18.9133 8.17741C19.4764 7.96623 19.8025 7.51347 20.01 7.12126L18.854 7.5136C18.7058 7.5739 18.528 7.5136 18.4687 7.36272C18.4094 7.21172 18.4391 7.03069 18.5576 6.94011C19.0318 6.54778 19.3875 6.12529 19.6543 5.67265C19.0615 5.91399 18.528 6.12529 18.0834 6.27617C17.9055 6.33647 17.7277 6.30632 17.5499 6.21587L17.5316 6.20573C17.1836 6.01225 16.0853 5.40141 15.4158 5.4312C13.6374 5.46135 12.2147 7.00053 12.2147 8.87163V9.7166L11.8589 9.6563C8.59857 9.05266 6.79049 8.17741 4.89352 6.27617C4.00433 8.56975 5.84201 10.1694 6.46444 10.622L7.20541 11.1652H6.28655C5.69375 11.1652 5.04168 11.1049 4.44888 10.8333C5.10098 12.2215 6.43481 13.2476 7.56112 13.5796L7.47219 14.1832C7.2351 14.1832 6.99795 14.1832 6.76086 14.2133C6.13839 14.2436 5.57525 14.2436 5.04171 14.0624C5.63452 15.2093 6.67193 15.6922 8.36141 15.6922H9.25061L8.50961 16.2354C7.59075 16.9596 6.40515 17.6236 4.35998 17.7746C5.3381 18.2574 7.14611 18.7101 9.84338 18.7101C14.4647 18.7101 18.7354 13.9991 18.7354 8.7509V8.23784Z" fill="white"/>
<mask id="mask0" mask-type="alpha" maskUnits="userSpaceOnUse" x="3" y="4" width="18" height="16">
<path id="Shape_2" fill-rule="evenodd" clip-rule="evenodd" d="M20.5302 6.09489C20.6525 6.06364 20.8052 6.09489 20.8969 6.18864C20.9885 6.28239 21.0191 6.43864 20.9886 6.56364C20.7136 7.46977 20.1637 8.12602 19.4915 8.46977V8.5634C19.4915 14.5942 15.092 19.5 9.71484 19.5C6.69018 19.5 4.24606 18.9688 3.14617 18.0627C3.02398 17.9377 2.96285 17.7814 3.02398 17.5939C3.08505 17.4377 3.23782 17.3127 3.42114 17.3127C5.22372 17.2814 6.38467 16.844 7.27069 16.3128C5.55975 16.094 4.49041 15.2504 3.94052 13.6568C3.87939 13.5005 3.94052 13.3443 4.06271 13.2505C4.1849 13.1568 4.36822 13.1568 4.49041 13.2193C4.94869 13.5318 5.40698 13.5943 5.9569 13.5943C4.79595 12.8757 3.72662 11.6882 3.29891 10.2195C3.26834 10.0633 3.32946 9.8759 3.45165 9.8134C3.60443 9.71965 3.7572 9.7509 3.87939 9.84465C4.21548 10.1258 4.58212 10.3133 5.13201 10.407C3.94052 9.15715 3.20727 7.31352 4.24603 5.28252L4.42935 4.90752L4.7348 5.22002C6.62905 7.25102 8.37051 8.18852 11.5479 8.8134V8.6884C11.5479 6.40739 13.2894 4.53252 15.4586 4.50127C16.314 4.50127 17.5055 5.12627 17.9944 5.40752C18.0061 5.40752 18.0177 5.41203 18.0277 5.41594C18.0438 5.42229 18.0555 5.4268 18.0555 5.40752C18.6666 5.22002 19.3998 4.90752 20.2552 4.53252C20.3775 4.47002 20.5302 4.50127 20.6219 4.59502C20.7136 4.68877 20.7441 4.81377 20.683 4.97002C20.5302 5.40752 20.2858 5.87627 19.9192 6.31364L20.5302 6.09489ZM18.7354 8.23784L18.9133 8.17741C19.4764 7.96623 19.8025 7.51347 20.01 7.12126L18.854 7.5136C18.7058 7.5739 18.528 7.5136 18.4687 7.36272C18.4094 7.21172 18.4391 7.03069 18.5576 6.94011C19.0318 6.54778 19.3875 6.12529 19.6543 5.67265C19.0615 5.91399 18.528 6.12529 18.0834 6.27617C17.9055 6.33647 17.7277 6.30632 17.5499 6.21587L17.5316 6.20573C17.1836 6.01225 16.0853 5.40141 15.4158 5.4312C13.6374 5.46135 12.2147 7.00053 12.2147 8.87163V9.7166L11.8589 9.6563C8.59857 9.05266 6.79049 8.17741 4.89352 6.27617C4.00433 8.56975 5.84201 10.1694 6.46444 10.622L7.20541 11.1652H6.28655C5.69375 11.1652 5.04168 11.1049 4.44888 10.8333C5.10098 12.2215 6.43481 13.2476 7.56112 13.5796L7.47219 14.1832C7.2351 14.1832 6.99795 14.1832 6.76086 14.2133C6.13839 14.2436 5.57525 14.2436 5.04171 14.0624C5.63452 15.2093 6.67193 15.6922 8.36141 15.6922H9.25061L8.50961 16.2354C7.59075 16.9596 6.40515 17.6236 4.35998 17.7746C5.3381 18.2574 7.14611 18.7101 9.84338 18.7101C14.4647 18.7101 18.7354 13.9991 18.7354 8.7509V8.23784Z" fill="white"/>
</mask>
<g mask="url(#mask0)">
</g>
</g>
</svg>

<svg width="24" height="24" viewBox="0 0 24 24" fill="none" xmlns="http://www.w3.org/2000/svg"><g id="ic/24/social/twitter"><path id="Shape" fill-rule="evenodd" clip-rule="evenodd" d="M20.53 6.095a.395.395 0 0 1 .367.094.42.42 0 0 1 .092.375c-.275.906-.825 1.562-1.498 1.906v.093c0 6.031-4.399 10.937-9.776 10.937-3.025 0-5.469-.531-6.569-1.437-.122-.125-.183-.282-.122-.47a.435.435 0 0 1 .397-.28c1.803-.032 2.964-.469 3.85-1-1.711-.219-2.78-1.063-3.33-2.656a.346.346 0 0 1 .122-.406.423.423 0 0 1 .427-.032c.459.313.917.375 1.467.375-1.161-.718-2.23-1.906-2.658-3.374-.03-.157.03-.344.153-.407.152-.093.305-.062.427.032.336.28.703.468 1.253.562-1.191-1.25-1.925-3.093-.886-5.124l.183-.375.306.312c1.894 2.031 3.636 2.969 6.813 3.593v-.125c0-2.28 1.741-4.155 3.91-4.187.856 0 2.048.625 2.536.907.012 0 .024.004.034.008.016.006.027.01.027-.008.612-.188 1.345-.5 2.2-.875a.32.32 0 0 1 .367.062c.092.094.122.219.061.375a4.306 4.306 0 0 1-.764 1.344l.611-.22zm-1.795 2.143l.178-.06c.563-.212.89-.665 1.097-1.057l-1.156.393c-.148.06-.326 0-.385-.151-.06-.151-.03-.332.089-.423a4.8 4.8 0 0 0 1.096-1.267c-.593.241-1.126.452-1.57.603-.178.06-.356.03-.534-.06l-.018-.01c-.348-.194-1.447-.805-2.116-.775-1.779.03-3.201 1.57-3.201 3.44v.846l-.356-.06c-3.26-.604-5.069-1.48-6.965-3.38-.89 2.293.948 3.892 1.57 4.345l.741.543h-.918c-.593 0-1.245-.06-1.838-.332.652 1.389 1.986 2.415 3.112 2.747l-.089.603c-.237 0-.474 0-.711.03-.623.03-1.186.03-1.72-.15.594 1.146 1.63 1.63 3.32 1.63h.89l-.741.542c-.92.725-2.105 1.389-4.15 1.54.978.482 2.786.935 5.483.935 4.622 0 8.892-4.71 8.892-9.96v-.512z" fill="#fff"/><mask id="mask0" maskUnits="userSpaceOnUse" x="3" y="4" width="18" height="16"><path id="Shape_2" fill-rule="evenodd" clip-rule="evenodd" d="M20.53 6.095a.395.395 0 0 1 .367.094.42.42 0 0 1 .092.375c-.275.906-.825 1.562-1.498 1.906v.093c0 6.031-4.399 10.937-9.776 10.937-3.025 0-5.469-.531-6.569-1.437-.122-.125-.183-.282-.122-.47a.435.435 0 0 1 .397-.28c1.803-.032 2.964-.469 3.85-1-1.711-.219-2.78-1.063-3.33-2.656a.346.346 0 0 1 .122-.406.423.423 0 0 1 .427-.032c.459.313.917.375 1.467.375-1.161-.718-2.23-1.906-2.658-3.374-.03-.157.03-.344.153-.407.152-.093.305-.062.427.032.336.28.703.468 1.253.562-1.191-1.25-1.925-3.093-.886-5.124l.183-.375.306.312c1.894 2.031 3.636 2.969 6.813 3.593v-.125c0-2.28 1.741-4.155 3.91-4.187.856 0 2.048.625 2.536.907.012 0 .024.004.034.008.016.006.027.01.027-.008.612-.188 1.345-.5 2.2-.875a.32.32 0 0 1 .367.062c.092.094.122.219.061.375a4.306 4.306 0 0 1-.764 1.344l.611-.22zm-1.795 2.143l.178-.06c.563-.212.89-.665 1.097-1.057l-1.156.393c-.148.06-.326 0-.385-.151-.06-.151-.03-.332.089-.423a4.8 4.8 0 0 0 1.096-1.267c-.593.241-1.126.452-1.57.603-.178.06-.356.03-.534-.06l-.018-.01c-.348-.194-1.447-.805-2.116-.775-1.779.03-3.201 1.57-3.201 3.44v.846l-.356-.06c-3.26-.604-5.069-1.48-6.965-3.38-.89 2.293.948 3.892 1.57 4.345l.741.543h-.918c-.593 0-1.245-.06-1.838-.332.652 1.389 1.986 2.415 3.112 2.747l-.089.603c-.237 0-.474 0-.711.03-.623.03-1.186.03-1.72-.15.594 1.146 1.63 1.63 3.32 1.63h.89l-.741.542c-.92.725-2.105 1.389-4.15 1.54.978.482 2.786.935 5.483.935 4.622 0 8.892-4.71 8.892-9.96v-.512z" fill="#fff"/></mask></g></svg>
